X:1
T:The Jubilee
T:The Jubilee
T:David Elijah Dortch
T:Robert Pollok Kerr, 1878
T:Public Domain Courtesy of the Cyber Hymnal™
T:Public Domain Courtesy of the Cyber Hymnal™
C:David Elijah Dortch
Z:Public Domain
Z:Courtesy of the Cyber Hymnal™
%%score ( 1 2 ) ( 3 4 )
L:1/8
Q:1/4=110
M:6/8
K:G
V:1 treble 
V:2 treble 
V:3 bass 
V:4 bass 
V:1
 D | G2 G G2 B | d3 B2 [DG] | [DG]2 [DG] [DF]2 [DG] | [FA]3- [FA]2 D | G2 G G2 B | d3 B2 [DG] | %7
w: 1.~The|sil- ver trum- pets|call, The glad-|some ju- bi- lee!|The * fet-|ters now must fall;|The bonds- men|
w: 2.~Let|Heav’n and earth a-|gree To sound|His fame a- broad,|Thro’ * whom|the ju- bi- lee|Calls back the|
w: 3.~Lost|E- den is res-|tored; All hail|the ju- bi- lee!|Let * Je-|sus be a- dored|For grace so|
w: 4.~The|Gos- pel bu- gle|blow O’er ev-|ery land and sea,|Till * Sa-|tan’s cap- tives know|That Je- sus|
 [FA]2 G [GB]2 [FA] | G3- G2 G | [Gc]2 [Gc] (cd)[Ge] | [Gd]2 [GB] [DG]2 G | [Gc]2 [Gc] (cd)[Ge] | %12
w: may go free! For|Je- * sus|has the ran- * som|paid, And the new|way to glo- * ry|
w: world to God. How|fer- * vent-|ly His heart * doth|burn, To see His|ban- ished ones * re-|
w: full and free. Ye|ru- * ined|souls, no long- * er|roam; No more des-|pise your blood- * bought|
w: makes them free! Soon|may * He|see them, born * a-|gain, The hap- py|sub- jects of * His|
 [Gd]2 [GB] [FA]2 D | G2 G G2 B | d3 B2 [DG] | [FA]2 G [GB]2 [FA] | (G3- G2) |] %17
w: made. The sil- ver|trum- pets call, The|glad- some ju-|bi- lee! * *||
w: turn! Let Heav’n and|earth a- gree To|sound His fame|a- broad. * *||
w: home. Lost E- den|is res- tored; All|hail the ju-|bi- lee! * *||
w: reign. The Gos- pel|bu- gle blow O’er|ev- ery land|and sea. * *||
V:2
 D | G2 G G2 B | (d3 B2) x | x6 | x5 D | G2 G G2 B | (d3 B2) x | x2 G x3 | G3- G2 G | x3 G2 x | %10
 x5 G | x3 G2 x | x5 D | G2 G G2 B | (d3 B2) x | x2 G x3 | G3- G2 |] %17
V:3
 F, | G,2 G, G,2 B, | D3 B,2 [G,B,] | [G,B,]2 [G,B,] [A,C]2 [G,B,] | [D,D]3- [D,D]2 D, | %5
 G,2 G, G,2 B, | D3 B,2 [G,B,] | [D,C]2 [D,B,] [D,D]2 [D,C] | [G,B,]3- [G,B,]2 [G,B,] | %9
 [E,C]2 [E,C] ([E,C][D,B,])[C,C] | [G,B,]2 [G,D] [G,B,]2 [G,B,] | [E,C]2 [E,C] ([E,C][D,B,])[C,C] | %12
 [G,B,]2 [G,D] [D,D]2 D, | G,2 G, G,2 B, | D3 B,2 [G,B,] | [D,C]2 [D,B,] [D,D]2 [D,C] | %16
 [G,B,]3- [G,B,]2 |] %17
V:4
 F, | G,2 G, G,2 B, | (D3 B,2) x | x6 | x5 D, | G,2 G, G,2 B, | (D3 B,2) x | x6 | x6 | x6 | x6 | %11
 x6 | x5 D, | G,2 G, G,2 B, | (D3 B,2) x | x6 | x5 |] %17

